img/svg/16/os/chromeos.svg

<svg xmlns="http://www.w3.org/2000/svg" viewBox="0 0 16 16" enable-background="new 0 0 16 16"><path d="M5.046 6.182l-1.272-3.762c1.174-.891 2.638-1.42 4.226-1.42 2.606 0 4.878 1.423 6.084 3.535h-5.919l-.165-.004c-1.249 0-2.344.66-2.954 1.651zm6.423 1.818c0 1.17-.579 2.203-1.466 2.832l-4.394 3.749c.746.271 1.551.419 2.391.419 3.866 0 7-3.134 7-7 0-.778-.127-1.527-.362-2.226h-3.978c.505.602.809 1.379.809 2.226zm-7.083 5.996l3.021-2.578c-1.364-.235-2.455-1.266-2.778-2.597l-1.852-5.481c-1.105 1.237-1.777 2.87-1.777 4.66 0 2.544 1.357 4.77 3.386 5.996zm3.614-3.828c1.198 0 2.168-.971 2.168-2.168s-.971-2.168-2.168-2.168-2.168.971-2.168 2.168.971 2.168 2.168 2.168z" fill="#ccc"/></svg>

<svg xmlns="http://www.w3.org/2000/svg" viewBox="0 0 16 16"><path fill="#ccc" d="M5.046 6.182 3.774 2.42A6.966 6.966 0 0 1 8 1a6.997 6.997 0 0 1 6.084 3.535H8.165L8 4.531c-1.249 0-2.344.66-2.954 1.651zM11.469 8c0 1.17-.579 2.203-1.466 2.832l-4.394 3.749a7 7 0 0 0 9.029-8.807H10.66c.505.602.809 1.379.809 2.226zm-7.083 5.996 3.021-2.578a3.473 3.473 0 0 1-2.778-2.597L2.777 3.34A6.972 6.972 0 0 0 1 8a6.996 6.996 0 0 0 3.386 5.996zM8 10.168a2.168 2.168 0 1 0 0-4.336 2.168 2.168 0 0 0 0 4.336z"/></svg>
